X:111
T:Brennan's Fancy
T:Brennan's
T:John Brennan from Sligo
R:reel
Z:id:hn-reel-111
M:C|
K:D
D2FA d2ed|cdBc AF~F2|BAGB A2FA|BAGF EGFE|
D2FA d2ed|cdBc AF~F2|BAGB ABde|faeg fdd2:|
f2df e2de|fedB AF~F2|BAGB A2FA|BAGF EFGE|
f2df e2de|fedB AF~F2|BAGB ABde|faeg fdde|
f2df e2de|fedB AF~F2|BAGB A2FA|BAGF EGFE|
D2FA d2ed|cdBc AF~F2|BAGB ABde|faeg fdd2||
